X:153
U: ~ = !turn!
%%topmargin 3cm
T:Over the Moor to Maggie
B:Traditional Irish Fiddle Tunes. Randy Miller and Jack Perron.
Z:Transcribed by Ralph Palmer
N:Played by Jean Carignan.
R:Reel
M:C|
L:1/8
K:A
A2 AB cBce | ((3faf) af ecPBA | FB (3.B.B.B BcPBA | BABc BAFE |
A2 AB PcBce | faaf ecPBA | FA (3.A.A.A ABAF | [1 EAAB A4 :| [2 EAAB A3 ||
|: B | c2 c2 B2 ((3BcB) | ((3ABA) ((3FAF) ((3EFE) CE | FB (3.B.B.B BcBA | FBBF ((3BcB) AB |
c2 c2 B2 ((3BcB) | ((3ABA) ((3FAF) ((3EFE) CE | FA (3.A.A.A ABAF | EAAB A2 z :|]
